X:71
T:My Darling Asleep
R:jig
Z:id:hn-jig-71
M:6/8
K:D
fdd cAA|BAG A2G|FAA def|gfg eag|fdd cAA|BAG A2G|FAA def|1 gec d2e:|2 gec d2z||
|:FAA BAG|FAA BAG|FAA def|gfg eag|fdd cAA|BAG A2G|FAA def|1 gec d2A:|2 gec d2e||
<end>
<start>
